!!!OTL: ALLES SCHLAEFT NUR SILBERN SCHALLET
!!!ARE: Europa, Mitteleuropa, Deutschland
!!!SCT: B0363
!!!YEM: Copyright 1995, estate of Helmut Schaffrath.
**kern
*ICvox
*Ivox
*M2/4
*k[f#]
*G:
=1
{4dd
8cc
8b
=2
4.b
8dd
=3
8ee
8dd
8cc
8b
=4
4b
4a}
=5
{8b
8dd
8cc#
8ee
=6
8dd
8a
8b
8g
=7
4f#
4e
=8
2d}
=9
{4dd
8cc
8b
=10
4.b
8dd
=11
8ee
8dd
8cc
8b
=12
4b
4a}
=13
{8b
8dd
8cc#
8ee
=14
8dd
8a
8b
8g
=15
4f#
4e
=16
2d}
=17
{8d
8f#
8f#
8a
=18
8a
8cc
8cc
8ee
=19
8ee
8dd
8cc
8b
=20
4b
4a}
=21
{4.dd
8dd
=22
4.ee
8cc
=23
4b
4a
=24
4a
4g}
=25
{4.gg
8dd
=26
4.ee
8cc
=27
4b
4a
=28
2g}
==
!!!AGN: Liebes - Lied, Liebes - Lust
!!!ONB: ESAC (Essen Associative Code) Database: BOEHME
!!!AMT: simple duple
!!!AIN: vox
!!!EED: Helmut Schaffrath
!!!EEV: 1.0
*-
